src/22/actions/blurfx.svg

<svg xmlns="http://www.w3.org/2000/svg" viewBox="0 0 22 22">
  <defs id="defs3051">
    <style type="text/css" id="current-color-scheme">
      .ColorScheme-Text {
        color:#5d656b;
      }
      </style>
  </defs>
 <path 
     style="fill:currentColor;fill-opacity:1;stroke:none" 
	 d="M 10 3 C 9.02709 6.405 6.6455531 9.3322813 5.5957031 11.675781 C 5.2283031 12.372581 5 13.1546 5 14 C 5 16.77 7.23 19 10 19 C 12.77 19 15 16.77 15 14 C 15 13.1546 14.771697 12.372581 14.404297 11.675781 C 13.354447 9.3322812 10.9729 6.405 10 3 z M 16 3 L 15.425781 4.6132812 L 13.878906 3.8789062 L 14.613281 5.4257812 L 13 6 L 14.613281 6.5742188 L 13.878906 8.1210938 L 15.425781 7.3867188 L 16 9 L 16.574219 7.3867188 L 18.121094 8.1210938 L 17.386719 6.5742188 L 19 6 L 17.386719 5.4257812 L 18.121094 3.8789062 L 16.574219 4.6132812 L 16 3 z M 12.283203 10.716797 C 13.320903 11.437997 14 12.6351 14 14 C 14 16.216 12.216 18 10 18 C 8.63504 18 7.4379969 17.321003 6.7167969 16.283203 C 7.3638369 16.732903 8.14892 17 9 17 C 11.216 17 13 15.216 13 13 C 13 12.1489 12.732913 11.363797 12.283203 10.716797 z "
	 class="ColorScheme-Text"
     />
</svg>

<svg xmlns="http://www.w3.org/2000/svg" viewBox="0 0 22 22"><path d="M10 3c-.973 3.405-3.354 6.332-4.404 8.676A4.958 4.958 0 0 0 5 14c0 2.77 2.23 5 5 5s5-2.23 5-5c0-.845-.228-1.627-.596-2.324C13.354 9.332 10.973 6.405 10 3zm6 0l-.574 1.613-1.547-.734.734 1.547L13 6l1.613.574-.734 1.547 1.547-.734L16 9l.574-1.613 1.547.734-.734-1.547L19 6l-1.613-.574.734-1.547-1.547.734L16 3zm-3.717 7.717A3.984 3.984 0 0 1 14 14c0 2.216-1.784 4-4 4a3.984 3.984 0 0 1-3.283-1.717C7.364 16.733 8.149 17 9 17c2.216 0 4-1.784 4-4 0-.851-.267-1.636-.717-2.283z" fill="currentColor" color="#5d656b"/></svg>
